icons/logo-medium.svg

<svg
  width="24"
  height="24"
  viewBox="0 0 24 24"
  xmlns="http://www.w3.org/2000/svg"
  fill="none"
  stroke="currentColor"
  stroke-width="2"
  stroke-linecap="round"
  stroke-linejoin="round"
>
  <path d="M20 20H4V4h16v16z" />
  <path d="M8 15h1m1 0H9m0 0V9m0 0l3 3 3-3M9 9H8m7 0v6m0-6h1m-2 6h2" />
</svg>

<svg width="24" height="24" viewBox="0 0 24 24" fill="none" xmlns="http://www.w3.org/2000/svg">
<path d="M20 20H4V4H20V20Z" stroke="#1E293B" stroke-width="2" stroke-linecap="round" stroke-linejoin="round"/>
<path d="M8 15H9M10 15H9M9 15V9M9 9L12 12L15 9M9 9H8M15 9V15M15 9H16M14 15H16" stroke="#1E293B" stroke-width="2" stroke-linecap="round" stroke-linejoin="round"/>
</svg>
